; generated by PrusaSlicer 2.3.0-rc1+ on 2023-05-04 at 10:40:25 UTC


;
;

;
;
; 

; external perimeters extrusion width = 0.45mm
; perimeters extrusion width = 0.45mm
; infill extrusion width = 0.45mm
; solid infill extrusion width = 0.45mm
; top infill extrusion width = 0.40mm
; first layer extrusion width = 0.42mm

M73 P0 R77
M201 X1250 Y1250 Z400 E5000 ; sets maximum accelerations, mm/sec^2
M203 X180 Y180 Z12 E80 ; sets maximum feedrates, mm/sec
M204 P1250 R1250 T1250 ; sets acceleration (P, T) and retract acceleration (R), mm/sec^2
M205 X8.00 Y8.00 Z2.00 E10.00 ; sets the jerk limits, mm/sec
M205 S0 T0 ; sets the minimum extruding and travel feed rate, mm/sec
M107
;TYPE:Custom
G90 ; use absolute coordinates
M83 ; extruder relative mode
M104 S170 ; set extruder temp for bed leveling
M140 S60 ; set bed temp
M109 R170 ; wait for bed leveling temp
M190 S60 ; wait for bed temp
G28 ; home all without mesh bed level
G29 ; mesh bed leveling 
M104 S215 ; set extruder temp
G92 E0.0
G1 Y-2.0 X179 F2400
G1 Z3 F720
M109 S215 ; wait for extruder temp

; intro line
G1 X170 F1000
G1 Z0.2 F720
G1 X110.0 E8.0 F900
G1 X40.0 E10.0 F700
G92 E0.0

M221 S95 ; set flow
G21 ; set units to millimeters
G90 ; use absolute coordinates
M83 ; use relative distances for extrusion
M900 K0.2 ; Filament gcode LA 1.5
; ; Filament gcode LA 1.0
;LAYER_CHANGE
;Z:0.2
;HEIGHT:0.2
;BEFORE_LAYER_CHANGE
G92 E0.0
;0.2


G1 E-3.20000 F4200.000
G1 Z0.200 F9000.000
;AFTER_LAYER_CHANGE
;0.2
; printing object Body1.stl id:0 copy 0
G1 Z0.400
G1 X80.030 Y106.689
G1 Z0.200
G1 E3.20000 F2400.000
M204 S800
;TYPE:External perimeter
;WIDTH:0.42
G1 F1200.000
G1 X80.519 Y106.697 E0.01533
G1 X80.955 Y106.833 E0.01431
G1 X81.334 Y107.013 E0.01318
G1 X81.685 Y107.236 E0.01302
G1 X82.024 Y107.516 E0.01379
G1 X82.321 Y107.896 E0.01512
G1 X82.476 Y108.369 E0.01562
G1 X82.483 Y108.861 E0.01543
G1 X82.368 Y109.334 E0.01527
G1 X82.142 Y109.764 E0.01522
G1 X81.820 Y110.127 E0.01522
G1 X81.421 Y110.403 E0.01522
G1 X80.967 Y110.575 E0.01522
G1 X80.486 Y110.634 E0.01522
G1 X80.004 Y110.575 E0.01522
G1 X79.550 Y110.403 E0.01522
G1 X79.151 Y110.127 E0.01522
G1 X78.829 Y109.764 E0.01522
G1 X78.603 Y109.334 E0.01522
G1 X78.487 Y108.863 E0.01522
G1 X78.487 Y108.378 E0.01522
G1 X78.603 Y107.907 E0.01522
G1 X78.829 Y107.477 E0.01522
G1 X79.152 Y107.113 E0.01525
G1 X79.559 Y106.839 E0.01537
G1 X79.973 Y106.707 E0.01364
M204 S1250
G1 X80.180 Y106.318 F9000.000
G1 E-2.24000 F4200.000
;WIPE_START
G1 F7200.000
G1 X80.519 Y106.697 E-0.30265
G1 X80.955 Y106.833 E-0.25285
G1 X81.334 Y107.013 E-0.23299
G1 X81.523 Y107.133 E-0.12351
;WIPE_END
G1 E-0.04800 F4200.000
G1 Z0.400 F9000.000
G1 X107.980 Y101.449
G1 Z0.200
G1 E3.20000 F2400.000
M204 S800
G1 F1200.000
G1 X107.904 Y100.960 E0.01553
G1 X107.988 Y100.490 E0.01497
G1 X108.155 Y100.086 E0.01369
G1 X108.355 Y99.727 E0.01290
G1 X108.598 Y99.380 E0.01330
M73 P0 R76
G1 X108.926 Y99.050 E0.01457
G1 X109.362 Y98.823 E0.01540
G1 X109.816 Y98.746 E0.01445
G1 X110.334 Y98.796 E0.01631
G1 X110.791 Y98.969 E0.01530
G1 X111.190 Y99.244 E0.01522
G1 X111.512 Y99.608 E0.01522
G1 X111.722 Y100.007 E0.01416
G1 X111.854 Y100.507 E0.01619
G1 X111.854 Y100.994 E0.01527
G1 X111.737 Y101.465 E0.01522
G1 X111.512 Y101.895 E0.01522
G1 X111.190 Y102.258 E0.01522
G1 X110.791 Y102.534 E0.01522
G1 X110.337 Y102.706 E0.01522
G1 X109.855 Y102.764 E0.01522
G1 X109.373 Y102.706 E0.01522
G1 X108.920 Y102.533 E0.01522
G1 X108.520 Y102.257 E0.01523
G1 X108.198 Y101.891 E0.01529
G1 X108.007 Y101.503 E0.01356
M204 S1250
G1 X107.590 Y101.360 F9000.000
G1 E-2.24000 F4200.000
;WIPE_START
G1 F7200.000
G1 X107.904 Y100.960 E-0.30642
G1 X107.988 Y100.490 E-0.26452
G1 X108.155 Y100.086 E-0.24191
G1 X108.242 Y99.930 E-0.09914
;WIPE_END
G1 E-0.04800 F4200.000
G1 Z0.400 F9000.000
G1 X102.441 Y73.313
G1 Z0.200
G1 E3.20000 F2400.000
M204 S800
G1 F1200.000
G1 X101.951 Y73.306 E0.01535
G1 X101.517 Y73.167 E0.01430
G1 X101.138 Y72.989 E0.01313
G1 X100.785 Y72.767 E0.01305
G1 X100.446 Y72.486 E0.01381
G1 X100.151 Y72.106 E0.01510
G1 X99.996 Y71.633 E0.01561
G1 X99.988 Y71.141 E0.01543
G1 X100.103 Y70.668 E0.01527
G1 X100.329 Y70.238 E0.01522
G1 X100.651 Y69.875 E0.01522
G1 X101.050 Y69.599 E0.01522
G1 X101.504 Y69.427 E0.01522
G1 X101.952 Y69.373 E0.01416
G1 X102.466 Y69.426 E0.01619
G1 X102.921 Y69.599 E0.01527
G1 X103.320 Y69.875 E0.01522
G1 X103.642 Y70.238 E0.01522
G1 X103.868 Y70.668 E0.01522
G1 X103.984 Y71.139 E0.01522
G1 X103.984 Y71.624 E0.01522
G1 X103.868 Y72.095 E0.01522
G1 X103.642 Y72.525 E0.01522
G1 X103.319 Y72.889 E0.01525
G1 X102.913 Y73.163 E0.01537
G1 X102.498 Y73.295 E0.01365
M204 S1250
G1 X102.291 Y73.684 F9000.000
G1 E-2.24000 F4200.000
;WIPE_START
G1 F7200.000
G1 X101.951 Y73.306 E-0.30304
G1 X101.517 Y73.167 E-0.25269
G1 X101.138 Y72.989 E-0.23215
G1 X100.948 Y72.870 E-0.12412
;WIPE_END
G1 E-0.04800 F4200.000
G1 Z0.400 F9000.000
G1 X71.687 Y83.381
G1 Z0.200
G1 E3.20000 F2400.000
M204 S800
;TYPE:Perimeter
G1 F1200.000
G1 X71.284 Y84.719 E0.04380
G1 X70.934 Y86.266 E0.04972
G1 X70.722 Y87.702 E0.04553
G1 X70.611 Y89.145 E0.04537
G1 X70.601 Y90.452 E0.04100
G1 X70.694 Y92.036 E0.04973
G1 X70.888 Y93.475 E0.04552
G1 X71.182 Y94.891 E0.04536
G1 X71.533 Y96.151 E0.04101
G1 X72.062 Y97.647 E0.04975
G1 X72.647 Y98.975 E0.04550
G1 X73.321 Y100.255 E0.04535
G1 X74.007 Y101.368 E0.04102
G1 X74.931 Y102.659 E0.04976
G1 X75.861 Y103.773 E0.04549
G1 X76.862 Y104.816 E0.04533
G1 X77.829 Y105.695 E0.04097
G1 X78.473 Y106.207 E0.02579
G1 X78.401 Y106.255 E0.00271
G1 X77.892 Y106.829 E0.02407
G1 X77.538 Y107.503 E0.02386
G1 X77.356 Y108.241 E0.02383
G1 X77.356 Y109.001 E0.02383
G1 X77.496 Y109.568 E0.01831
G1 X76.179 Y108.580 E0.05161
G1 X75.081 Y107.633 E0.04546
G1 X74.042 Y106.622 E0.04546
G1 X73.066 Y105.549 E0.04546
G1 X72.157 Y104.420 E0.04546
G1 X71.319 Y103.237 E0.04546
G1 X70.553 Y102.006 E0.04546
G1 X69.864 Y100.730 E0.04546
G1 X69.253 Y99.415 E0.04546
G1 X68.722 Y98.066 E0.04546
G1 X68.275 Y96.686 E0.04546
G1 X67.912 Y95.283 E0.04546
G1 X67.635 Y93.858 E0.04550
G1 X67.446 Y92.435 E0.04503
G1 X67.343 Y90.996 E0.04524
G1 X67.327 Y89.500 E0.04690
G1 X67.396 Y88.120 E0.04334
G1 X67.677 Y85.589 E0.07982
G1 X65.002 Y84.045 E0.09685
G1 X65.119 Y83.499 E0.01751
G1 X65.459 Y82.260 E0.04029
G1 X65.859 Y81.033 E0.04047
G1 X66.177 Y80.200 E0.02795
G1 X71.635 Y83.351 E0.19762
M204 S1250
G1 E-2.24000 F4200.000
;WIPE_START
G1 F7200.000
G1 X71.284 Y84.719 E-0.78250
G1 X71.233 Y84.947 E-0.12950
;WIPE_END
G1 E-0.04800 F4200.000
G1 Z0.400 F9000.000
G1 X75.676 Y76.351
G1 Z0.200
G1 E3.20000 F2400.000
M204 S800
G1 F1200.000
G1 X70.218 Y73.200 E0.19762
G1 X70.781 Y72.509 E0.02795
G1 X71.643 Y71.548 E0.04047
G1 X72.546 Y70.634 E0.04029
G1 X72.960 Y70.260 E0.01751
G1 X75.637 Y71.805 E0.09690
G1 X77.660 Y70.314 E0.07879
G1 X78.884 Y69.524 E0.04567
G1 X80.131 Y68.822 E0.04488
G1 X81.420 Y68.195 E0.04496
G1 X82.777 Y67.633 E0.04604
G1 X84.148 Y67.162 E0.04545
G1 X85.545 Y66.774 E0.04546
G1 X86.963 Y66.472 E0.04546
G1 X88.397 Y66.256 E0.04546
G1 X89.841 Y66.128 E0.04545
G1 X91.300 Y66.087 E0.04575
G1 X92.740 Y66.134 E0.04518
G1 X94.183 Y66.269 E0.04546
G1 X95.616 Y66.492 E0.04546
G1 X97.033 Y66.800 E0.04546
G1 X98.428 Y67.194 E0.04546
G1 X99.797 Y67.672 E0.04546
G1 X101.298 Y68.312 E0.05116
G1 X101.231 Y68.321 E0.00211
G1 X100.521 Y68.590 E0.02383
G1 X99.895 Y69.022 E0.02383
G1 X99.391 Y69.591 E0.02383
G1 X99.037 Y70.265 E0.02387
G1 X98.895 Y70.848 E0.01881
G1 X98.124 Y70.544 E0.02600
G1 X96.879 Y70.146 E0.04097
G1 X95.475 Y69.800 E0.04533
G1 X94.048 Y69.552 E0.04541
G1 X92.608 Y69.405 E0.04541
G1 X91.160 Y69.360 E0.04541
G1 X89.710 Y69.416 E0.04550
G1 X88.133 Y69.595 E0.04975
G1 X86.847 Y69.831 E0.04101
G1 X85.445 Y70.188 E0.04536
G1 X84.070 Y70.643 E0.04541
G1 X82.730 Y71.193 E0.04541
G1 X81.432 Y71.836 E0.04541
G1 X80.180 Y72.569 E0.04552
G1 X78.876 Y73.472 E0.04973
G1 X77.852 Y74.286 E0.04099
G1 X76.784 Y75.262 E0.04538
G1 X75.728 Y76.381 E0.04824
M204 S1250
G1 E-2.24000 F4200.000
;WIPE_START
G1 F7200.000
G1 X74.303 Y75.559 E-0.91200
;WIPE_END
G1 E-0.04800 F4200.000
G1 Z0.400 F9000.000
G1 X103.999 Y73.795
G1 Z0.200
G1 E3.20000 F2400.000
M204 S800
G1 F1200.000
G1 X104.070 Y73.747 E0.00269
G1 X104.580 Y73.173 E0.02406
G1 X104.933 Y72.500 E0.02386
G1 X105.115 Y71.762 E0.02383
G1 X105.115 Y71.002 E0.02383
G1 X104.974 Y70.430 E0.01845
G1 X106.074 Y71.247 E0.04294
G1 X107.183 Y72.181 E0.04546
G1 X108.233 Y73.180 E0.04545
G1 X109.227 Y74.248 E0.04575
G1 X110.144 Y75.360 E0.04518
G1 X110.996 Y76.533 E0.04546
G1 X111.776 Y77.755 E0.04546
G1 X112.481 Y79.022 E0.04546
G1 X113.107 Y80.330 E0.04546
G1 X113.653 Y81.673 E0.04546
G1 X114.116 Y83.047 E0.04546
G1 X114.496 Y84.447 E0.04546
G1 X114.789 Y85.867 E0.04546
G1 X114.997 Y87.302 E0.04546
G1 X115.117 Y88.747 E0.04546
G1 X115.149 Y90.196 E0.04546
G1 X115.093 Y91.645 E0.04546
G1 X114.950 Y93.088 E0.04546
G1 X114.719 Y94.519 E0.04546
G1 X114.402 Y95.934 E0.04546
G1 X114.000 Y97.327 E0.04545
G1 X113.510 Y98.702 E0.04575
G1 X112.914 Y100.092 E0.04743
G1 X112.783 Y99.595 E0.01612
G1 X112.450 Y98.960 E0.02247
G1 X111.946 Y98.391 E0.02383
G1 X111.320 Y97.959 E0.02385
G1 X110.593 Y97.684 E0.02436
G1 X110.400 Y97.666 E0.00608
G1 X110.874 Y96.359 E0.04360
G1 X111.272 Y94.966 E0.04541
G1 X111.571 Y93.549 E0.04541
G1 X111.769 Y92.115 E0.04539
G1 X111.859 Y90.811 E0.04099
G1 X111.863 Y89.225 E0.04972
G1 X111.757 Y87.777 E0.04553
G1 X111.551 Y86.344 E0.04541
G1 X111.245 Y84.929 E0.04537
G1 X110.881 Y83.673 E0.04100
G1 X110.339 Y82.182 E0.04974
G1 X109.743 Y80.861 E0.04547
G1 X109.126 Y79.708 E0.04101
G1 X108.284 Y78.363 E0.04975
G1 X107.425 Y77.195 E0.04545
G1 X106.580 Y76.196 E0.04102
G1 X105.475 Y75.057 E0.04976
G1 X104.388 Y74.093 E0.04555
G1 X104.047 Y73.831 E0.01349
M204 S1250
G1 E-2.24000 F4200.000
;WIPE_START
G1 F7200.000
G1 X104.070 Y73.747 E-0.04850
G1 X104.580 Y73.173 E-0.42529
G1 X104.933 Y72.500 E-0.42165
G1 X104.940 Y72.470 E-0.01656
;WIPE_END
G1 E-0.04800 F4200.000
G1 Z0.400 F9000.000
G1 X107.458 Y102.763
G1 Z0.200
G1 E3.20000 F2400.000
M204 S800
G1 F1200.000
G1 X107.762 Y103.109 E0.01445
G1 X108.390 Y103.542 E0.02392
G1 X109.101 Y103.812 E0.02384
G1 X109.855 Y103.904 E0.02383
G1 X110.610 Y103.812 E0.02383
G1 X110.809 Y103.736 E0.00670
G1 X109.902 Y104.949 E0.04747
G1 X108.962 Y106.052 E0.04546
G1 X107.957 Y107.097 E0.04546
G1 X106.890 Y108.079 E0.04546
G1 X105.766 Y108.995 E0.04546
G1 X104.588 Y109.840 E0.04546
G1 X103.361 Y110.613 E0.04546
G1 X102.090 Y111.310 E0.04545
G1 X100.770 Y111.932 E0.04576
G1 X99.432 Y112.467 E0.04518
G1 X98.055 Y112.922 E0.04546
G1 X96.654 Y113.293 E0.04546
G1 X95.232 Y113.579 E0.04546
G1 X93.796 Y113.778 E0.04546
G1 X92.350 Y113.889 E0.04546
G1 X90.901 Y113.913 E0.04546
G1 X89.452 Y113.848 E0.04546
G1 X88.010 Y113.697 E0.04546
G1 X86.580 Y113.458 E0.04546
G1 X85.167 Y113.132 E0.04546
G1 X83.776 Y112.722 E0.04546
G1 X82.413 Y112.228 E0.04546
G1 X81.169 Y111.690 E0.04249
G1 X81.240 Y111.682 E0.00224
G1 X81.951 Y111.412 E0.02383
G1 X82.576 Y110.980 E0.02383
G1 X83.080 Y110.411 E0.02383
G1 X83.434 Y109.737 E0.02387
G1 X83.576 Y109.155 E0.01879
G1 X84.035 Y109.346 E0.01558
G1 X85.411 Y109.804 E0.04547
G1 X86.814 Y110.163 E0.04541
G1 X88.238 Y110.424 E0.04541
G1 X89.677 Y110.584 E0.04541
G1 X91.128 Y110.643 E0.04551
G1 X92.713 Y110.588 E0.04974
G1 X94.014 Y110.455 E0.04101
G1 X95.440 Y110.210 E0.04536
G1 X96.847 Y109.866 E0.04541
G1 X98.226 Y109.423 E0.04541
G1 X99.571 Y108.886 E0.04541
G1 X100.874 Y108.255 E0.04541
G1 X102.130 Y107.534 E0.04541
G1 X103.333 Y106.727 E0.04541
G1 X104.476 Y105.838 E0.04541
G1 X105.554 Y104.870 E0.04541
G1 X106.561 Y103.830 E0.04541
G1 X107.419 Y102.809 E0.04184
M204 S1250
G1 E-2.24000 F4200.000
;WIPE_START
G1 F7200.000
G1 X107.762 Y103.109 E-0.25255
G1 X108.390 Y103.542 E-0.42272
G1 X108.789 Y103.694 E-0.23674
;WIPE_END
G1 E-0.04800 F4200.000
G1 Z0.400 F9000.000
G1 X67.275 Y85.793
G1 Z0.200
G1 E3.20000 F2400.000
M204 S800
G1 F1200.000
G1 X64.576 Y84.234 E0.09773
G1 X64.752 Y83.409 E0.02645
G1 X65.097 Y82.151 E0.04090
G1 X65.504 Y80.907 E0.04104
G1 X65.983 Y79.653 E0.04211
G1 X72.152 Y83.214 E0.22333
G1 X72.013 Y83.585 E0.01242
G1 X71.649 Y84.814 E0.04019
G1 X71.305 Y86.335 E0.04888
G1 X71.097 Y87.744 E0.04466
G1 X70.988 Y89.161 E0.04455
G1 X70.978 Y90.443 E0.04020
G1 X71.070 Y92.000 E0.04889
G1 X71.260 Y93.411 E0.04466
G1 X71.548 Y94.802 E0.04454
G1 X71.893 Y96.037 E0.04021
G1 X72.413 Y97.508 E0.04890
G1 X72.987 Y98.811 E0.04465
G1 X73.649 Y100.068 E0.04453
G1 X74.322 Y101.160 E0.04021
G1 X75.229 Y102.428 E0.04891
G1 X76.142 Y103.521 E0.04464
G1 X77.126 Y104.545 E0.04452
G1 X78.073 Y105.408 E0.04018
G1 X79.111 Y106.232 E0.04154
G1 X78.652 Y106.541 E0.01736
G1 X78.204 Y107.045 E0.02113
G1 X77.893 Y107.637 E0.02098
G1 X77.733 Y108.286 E0.02096
G1 X77.733 Y108.955 E0.02096
G1 X77.893 Y109.604 E0.02096
G1 X78.204 Y110.196 E0.02096
G1 X78.647 Y110.696 E0.02096
G1 X79.197 Y111.076 E0.02096
G1 X79.822 Y111.313 E0.02096
G1 X80.486 Y111.393 E0.02096
G1 X81.149 Y111.313 E0.02096
G1 X81.774 Y111.076 E0.02096
G1 X82.324 Y110.696 E0.02096
G1 X82.768 Y110.196 E0.02096
G1 X83.079 Y109.603 E0.02099
G1 X83.239 Y108.946 E0.02120
G1 X83.234 Y108.604 E0.01073
G1 X84.167 Y108.992 E0.03170
G1 X85.517 Y109.442 E0.04462
G1 X86.894 Y109.795 E0.04458
G1 X88.293 Y110.051 E0.04458
G1 X89.706 Y110.208 E0.04458
G1 X91.129 Y110.265 E0.04465
G1 X92.688 Y110.212 E0.04890
G1 X93.963 Y110.081 E0.04021
G1 X95.363 Y109.841 E0.04455
G1 X96.744 Y109.503 E0.04458
G1 X98.098 Y109.068 E0.04458
G1 X99.418 Y108.540 E0.04458
G1 X100.698 Y107.921 E0.04458
G1 X101.931 Y107.213 E0.04458
G1 X103.112 Y106.421 E0.04458
G1 X104.234 Y105.548 E0.04458
G1 X105.292 Y104.599 E0.04458
G1 X106.281 Y103.577 E0.04458
G1 X107.197 Y102.487 E0.04466
G1 X107.466 Y102.112 E0.01445
G1 X107.566 Y102.314 E0.00705
G1 X108.015 Y102.825 E0.02133
G1 X108.566 Y103.206 E0.02102
G1 X109.192 Y103.443 E0.02096
G1 X109.855 Y103.524 E0.02096
G1 X110.519 Y103.443 E0.02096
G1 X111.144 Y103.206 E0.02096
G1 X111.694 Y102.827 E0.02096
G1 X112.137 Y102.326 E0.02096
G1 X112.448 Y101.734 E0.02096
G1 X112.608 Y101.085 E0.02096
G1 X112.608 Y100.409 E0.02121
G1 X112.429 Y99.732 E0.02193
G1 X112.137 Y99.176 E0.01970
G1 X111.694 Y98.676 E0.02096
G1 X111.143 Y98.296 E0.02097
G1 X110.507 Y98.055 E0.02134
G1 X109.844 Y97.991 E0.02086
G1 X110.029 Y97.582 E0.01410
G1 X110.515 Y96.243 E0.04467
G1 X110.906 Y94.875 E0.04458
G1 X111.199 Y93.484 E0.04458
G1 X111.394 Y92.076 E0.04456
G1 X111.482 Y90.798 E0.04019
G1 X111.486 Y89.238 E0.04889
G1 X111.382 Y87.818 E0.04466
G1 X111.180 Y86.411 E0.04458
G1 X110.879 Y85.022 E0.04455
G1 X110.523 Y83.790 E0.04020
G1 X109.990 Y82.324 E0.04890
G1 X109.405 Y81.027 E0.04462
G1 X108.799 Y79.897 E0.04021
G1 X107.971 Y78.575 E0.04890
G1 X107.128 Y77.429 E0.04461
G1 X106.300 Y76.450 E0.04021
G1 X105.214 Y75.330 E0.04891
G1 X104.148 Y74.384 E0.04468
G1 X103.353 Y73.775 E0.03140
G1 X103.820 Y73.461 E0.01764
G1 X104.267 Y72.957 E0.02113
G1 X104.578 Y72.365 E0.02098
G1 X104.738 Y71.716 E0.02096
G1 X104.738 Y71.047 E0.02096
G1 X104.578 Y70.398 E0.02096
G1 X104.268 Y69.806 E0.02096
G1 X103.824 Y69.306 E0.02096
G1 X103.274 Y68.926 E0.02096
G1 X102.642 Y68.687 E0.02121
G1 X101.946 Y68.614 E0.02193
G1 X101.322 Y68.689 E0.01970
G1 X100.697 Y68.926 E0.02096
G1 X100.147 Y69.306 E0.02096
G1 X99.704 Y69.807 E0.02096
G1 X99.393 Y70.399 E0.02099
G1 X99.232 Y71.056 E0.02121
G1 X99.238 Y71.389 E0.01042
G1 X97.997 Y70.899 E0.04182
G1 X96.776 Y70.509 E0.04018
G1 X95.398 Y70.169 E0.04452
G1 X93.997 Y69.926 E0.04458
G1 X92.582 Y69.782 E0.04458
G1 X91.161 Y69.737 E0.04458
G1 X89.739 Y69.792 E0.04465
G1 X88.189 Y69.969 E0.04891
G1 X86.927 Y70.200 E0.04021
G1 X85.551 Y70.550 E0.04454
G1 X84.201 Y70.997 E0.04458
G1 X82.886 Y71.537 E0.04458
G1 X81.612 Y72.168 E0.04458
G1 X80.383 Y72.888 E0.04466
G1 X79.101 Y73.775 E0.04889
G1 X78.097 Y74.573 E0.04020
G1 X77.048 Y75.531 E0.04456
G1 X76.068 Y76.562 E0.04458
G1 X75.816 Y76.868 E0.01243
G1 X69.647 Y73.306 E0.22333
G1 X70.494 Y72.264 E0.04211
G1 X71.368 Y71.290 E0.04104
G1 X72.285 Y70.362 E0.04090
G1 X72.911 Y69.796 E0.02645
